svg/u1f928.svg

<svg viewBox="0 0 128 128" xmlns="http://www.w3.org/2000/svg">
  <g id="gold">
    <radialGradient id="face_1_" cx="63.6" cy="1104.9" gradientTransform="matrix(1 0 0 1 0 -1042)" gradientUnits="userSpaceOnUse" r="56.9597">
      <stop offset="0.5" stop-color="#FDE030"/>
      <stop offset="0.92" stop-color="#F7C02B"/>
      <stop offset="1" stop-color="#F4A223"/>
    </radialGradient>
    <path id="face" d="M63.6,118.8c-27.9,0-58-17.5-58-55.9S35.7,7,63.6,7c15.5,0,29.8,5.1,40.4,14.4 c11.5,10.2,17.6,24.6,17.6,41.5s-6.1,31.2-17.6,41.4C93.4,113.6,79,118.8,63.6,118.8z" fill="url(#face_1_)"/>
    <path d="M111.49,29.67c5.33,8.6,8.11,18.84,8.11,30.23c0,16.9-6.1,31.2-17.6,41.4 c-10.6,9.3-25,14.5-40.4,14.5c-18.06,0-37-7.35-48.18-22.94c10.76,17.66,31,25.94,50.18,25.94c15.4,0,29.8-5.2,40.4-14.5 c11.5-10.2,17.6-24.5,17.6-41.4C121.6,50.16,118.13,38.84,111.49,29.67z" fill="#EB8F00"/>
  </g>
  <g id="facial_expressions">
    <g id="face-with-one-eyebrow-raised">
      <path id="mouth" d="M75,96H53c-2.21,0-4-1.79-4-4s1.79-4,4-4h22c2.21,0,4,1.79,4,4S77.21,96,75,96z" fill="#422B0D"/>
      <g id="eyes">
        <g id="peepers">
          <path d="M83.5,46c3.7,0,7,4.3,7,11.5S87.2,69,83.5,69s-7-4.3-7-11.5S79.8,46.1,83.5,46z" fill="#422B0D"/>
        </g>
        <g id="eyebrows">
          <path d="M27.1,45.6c0.4-0.8,0.7-1.4,1.1-2.1c0.44-0.62,0.9-1.22,1.4-1.8c1.14-1.21,2.5-2.19,4-2.9 c1.59-0.74,3.34-1.09,5.1-1c1.66,0.08,3.3,0.49,4.8,1.2l1,0.5c0.3,0.1,0.5,0.3,0.8,0.4c0.5,0.2,1.1,0.5,1.6,0.7 c1.04,0.41,2.11,0.74,3.2,1c0.52,0.12,1.06,0.19,1.6,0.2H53c0.42-0.06,0.83-0.19,1.2-0.4c0.44-0.21,0.84-0.48,1.2-0.8l0.2-0.2 c1-0.71,2.38-0.49,3.1,0.5c0.64,0.89,0.56,2.11-0.2,2.9c-0.58,0.59-1.22,1.13-1.9,1.6c-0.74,0.49-1.55,0.86-2.4,1.1 c-0.4,0.1-1,0.2-1.4,0.3c-0.38,0.16-0.79,0.23-1.2,0.2c-0.77,0.02-1.54-0.01-2.3-0.1c-1.47-0.17-2.91-0.5-4.3-1 c-0.69-0.21-1.36-0.47-2-0.8c-0.62-0.23-1.22-0.5-1.8-0.8c-1.67-0.74-3.56-0.85-5.3-0.3c-0.89,0.35-1.73,0.82-2.5,1.4 c-0.4,0.3-0.8,0.7-1.2,1c-0.39,0.34-0.76,0.71-1.1,1.1L30.7,48c-0.8,0.86-2.14,0.9-3,0.1c-0.04-0.03-0.07-0.07-0.1-0.1 C26.95,47.38,26.75,46.43,27.1,45.6z" fill="#422B0D"/>
          <path d="M94.6,35.7c-0.8-1.1-1.3-2.1-1.9-3c-0.44-0.79-1.01-1.51-1.7-2.1c-0.3-0.2-0.5-0.4-0.7-0.5 c-0.21-0.13-0.45-0.19-0.7-0.2c-0.71-0.08-1.44,0.02-2.1,0.3c-0.92,0.32-1.82,0.68-2.7,1.1c-0.9,0.5-1.8,1-2.8,1.6 c-1.8,1.2-3.7,2.5-5.6,3.8l0,0c-1.02,0.68-2.4,0.41-3.1-0.6c-0.6-0.83-0.51-1.97,0.2-2.7c1.59-1.84,3.37-3.52,5.3-5 c2.08-1.65,4.41-2.97,6.9-3.9c1.55-0.5,3.19-0.63,4.8-0.4c0.92,0.18,1.8,0.52,2.6,1c0.77,0.43,1.45,1.01,2,1.7 c0.95,1.09,1.7,2.34,2.2,3.7c0.5,1.2,0.9,2.3,1.2,3.2v0.1c0.42,1.18-0.2,2.48-1.39,2.9c0,0-0.01,0-0.01,0 C96.14,36.88,95.17,36.49,94.6,35.7z" fill="#422B0D"/>
        </g>
      </g>
    </g>
    <path d="M43.67,50.94L43.67,50.94c-4.19,0-8,3.54-8,9.42s3.81,9.41,8,9.41l0,0c4.19,0,8-3.54,8-9.41 S47.86,50.94,43.67,50.94z" fill="#422B0D"/>
    <g id="peepers-2">
      <path d="M43.28,54.87L43.28,54.87c-1.42-0.68-3.13-0.08-3.82,1.34c-0.53,1.11-0.29,2.44,0.6,3.3l0,0 c1.42,0.68,3.13,0.08,3.82-1.34C44.41,57.06,44.17,55.73,43.28,54.87z" fill="#896024"/>
    </g>
    <g id="peepers-3">
      <path d="M82.76,50.05L82.76,50.05c-1.41-0.09-2.62,0.98-2.71,2.38c0,0.05,0,0.1,0,0.15 c-0.31,1.38,0.56,2.75,1.94,3.06c0.04,0.01,0.08,0.02,0.12,0.02l0,0c1.42,0.08,2.63-1.01,2.71-2.43c0-0.03,0-0.07,0-0.1 c0.31-1.38-0.56-2.75-1.94-3.06C82.84,50.06,82.8,50.06,82.76,50.05z" fill="#896024"/>
    </g>
  </g>
</svg>

<svg viewBox="0 0 128 128" xmlns="http://www.w3.org/2000/svg">
  <defs>
    <radialGradient id="face_1_" cx="63.6" cy="62.9" gradientUnits="userSpaceOnUse" r="56.9597">
      <stop offset="0.5" stop-color="#FDE030"/>
      <stop offset="0.92" stop-color="#F7C02B"/>
      <stop offset="1" stop-color="#F4A223"/>
    </radialGradient>
  </defs>
  <path id="face" d="M63.6,118.8 C35.7,118.8 5.6,101.3 5.6,62.9 C5.6,24.5 35.7,7 63.6,7 C79.1,7 93.4,12.1 104,21.4 C115.5,31.6 121.6,46 121.6,62.9 C121.6,79.8 115.5,94.1 104,104.3 C93.4,113.6 79,118.8 63.6,118.8 Z" fill="url(#face_1_)"/>
  <path d="M111.49,29.67 C116.82,38.27 119.6,48.51 119.6,59.9 C119.6,76.8 113.5,91.1 102,101.3 C91.4,110.6 77,115.8 61.6,115.8 C43.54,115.8 24.6,108.45 13.42,92.86 C24.18,110.52 44.42,118.8 63.6,118.8 C79,118.8 93.4,113.6 104,104.3 C115.5,94.1 121.6,79.8 121.6,62.9 C121.6,50.16 118.13,38.84 111.49,29.67 Z" fill="#EB8F00"/>
  <path id="mouth" d="M75,96 L53,96 C50.79,96 49,94.21 49,92 C49,89.79 50.79,88 53,88 L75,88 C77.21,88 79,89.79 79,92 C79,94.21 77.21,96 75,96 Z" fill="#422B0D"/>
  <path d="M83.5,46 C87.2,46 90.5,50.3 90.5,57.5 C90.5,64.7 87.2,69 83.5,69 C79.8,69 76.5,64.7 76.5,57.5 C76.5,50.3 79.8,46.1 83.5,46 Z" fill="#422B0D"/>
  <path d="M27.1,45.6 C27.5,44.8 27.8,44.2 28.2,43.5 C28.64,42.88 29.1,42.28 29.6,41.7 C30.74,40.49 32.1,39.51 33.6,38.8 C35.19,38.06 36.94,37.71 38.7,37.8 C40.36,37.88 42,38.29 43.5,39 L44.5,39.5 C44.8,39.6 45,39.8 45.3,39.9 C45.8,40.1 46.4,40.4 46.9,40.6 C47.94,41.01 49.01,41.34 50.1,41.6 C50.62,41.72 51.16,41.79 51.7,41.8 L53,41.8 C53.42,41.74 53.83,41.61 54.2,41.4 C54.64,41.19 55.04,40.92 55.4,40.6 L55.6,40.4 C56.6,39.69 57.98,39.91 58.7,40.9 C59.34,41.79 59.26,43.01 58.5,43.8 C57.92,44.39 57.28,44.93 56.6,45.4 C55.86,45.89 55.05,46.26 54.2,46.5 C53.8,46.6 53.2,46.7 52.8,46.8 C52.42,46.96 52.01,47.03 51.6,47 C50.83,47.02 50.06,46.99 49.3,46.9 C47.83,46.73 46.39,46.4 45,45.9 C44.31,45.69 43.64,45.43 43,45.1 C42.38,44.87 41.78,44.6 41.2,44.3 C39.53,43.56 37.64,43.45 35.9,44 C35.01,44.35 34.17,44.82 33.4,45.4 C33,45.7 32.6,46.1 32.2,46.4 C31.81,46.74 31.44,47.11 31.1,47.5 L30.7,48 C29.9,48.86 28.56,48.9 27.7,48.1 C27.66,48.07 27.63,48.03 27.6,48 C26.95,47.38 26.75,46.43 27.1,45.6 Z" fill="#422B0D"/>
  <path d="M94.6,35.7 C93.8,34.6 93.3,33.6 92.7,32.7 C92.26,31.91 91.69,31.19 91,30.6 C90.7,30.4 90.5,30.2 90.3,30.1 C90.09,29.97 89.85,29.91 89.6,29.9 C88.89,29.82 88.16,29.92 87.5,30.2 C86.58,30.52 85.68,30.88 84.8,31.3 C83.9,31.8 83,32.3 82,32.9 C80.2,34.1 78.3,35.4 76.4,36.7 L76.4,36.7 C75.38,37.38 74,37.11 73.3,36.1 C72.7,35.27 72.79,34.13 73.5,33.4 C75.09,31.56 76.87,29.88 78.8,28.4 C80.88,26.75 83.21,25.43 85.7,24.5 C87.25,24 88.89,23.87 90.5,24.1 C91.42,24.28 92.3,24.62 93.1,25.1 C93.87,25.53 94.55,26.11 95.1,26.8 C96.05,27.89 96.8,29.14 97.3,30.5 C97.8,31.7 98.2,32.8 98.5,33.7 L98.5,33.8 C98.92,34.98 98.3,36.28 97.11,36.7 C97.11,36.7 97.1,36.7 97.1,36.7 C96.14,36.88 95.17,36.49 94.6,35.7 Z" fill="#422B0D"/>
  <path d="M43.67,50.94 L43.67,50.94 C39.48,50.94 35.67,54.48 35.67,60.36 C35.67,66.24 39.48,69.77 43.67,69.77 L43.67,69.77 C47.86,69.77 51.67,66.23 51.67,60.36 C51.67,54.49 47.86,50.94 43.67,50.94 Z" fill="#422B0D"/>
  <path d="M43.28,54.87 L43.28,54.87 C41.86,54.19 40.15,54.79 39.46,56.21 C38.93,57.32 39.17,58.65 40.06,59.51 L40.06,59.51 C41.48,60.19 43.19,59.59 43.88,58.17 C44.41,57.06 44.17,55.73 43.28,54.87 Z" fill="#896024"/>
  <path d="M82.76,50.05 L82.76,50.05 C81.35,49.96 80.14,51.03 80.05,52.43 C80.05,52.48 80.05,52.53 80.05,52.58 C79.74,53.96 80.61,55.33 81.99,55.64 C82.03,55.65 82.07,55.66 82.11,55.66 L82.11,55.66 C83.53,55.74 84.74,54.65 84.82,53.23 C84.82,53.2 84.82,53.16 84.82,53.13 C85.13,51.75 84.26,50.38 82.88,50.07 C82.84,50.06 82.8,50.06 82.76,50.05 Z" fill="#896024"/>
</svg>
